img/icon-fast.svg

<svg width="95" height="94" viewBox="0 0 95 94" fill="#826550" xmlns="http://www.w3.org/2000/svg">
	<path d="M90.2825 28.3501C88.1942 23.5523 85.3234 19.1336 81.787 15.2741C81.1207 16.5318 80.4544 17.7895 79.7881 19.0472C82.3777 22.0629 84.537 25.422 86.2047 29.0289C87.564 28.7993 88.9232 28.5797 90.2825 28.3501Z" fill="#826550" />
	<path d="M90.0027 43.4924C90.0926 44.6603 90.1526 45.8281 90.1526 47.006C90.1526 58.4089 85.6176 69.345 77.545 77.409C69.4724 85.473 58.5232 90.0047 47.1055 90.0073C46.326 90.0073 45.5464 89.9873 44.7668 89.9474C44.9276 90.5468 45.0149 91.1636 45.0266 91.784C45.0134 92.5166 44.8783 93.2418 44.6269 93.9301C45.4564 93.9301 46.296 94 47.1455 94C59.6143 93.9762 71.5649 89.0162 80.3779 80.2071C89.1909 71.398 94.1472 59.4586 94.1605 47.006C94.1557 44.9498 94.0188 42.896 93.7507 40.8572C92.5562 41.811 91.3045 42.691 90.0027 43.4924Z" fill="#826550" />
	<path d="M4.0485 47.006C4.04868 39.4548 6.03987 32.0369 9.82177 25.4982C13.6037 18.9595 19.0429 13.5308 25.5925 9.7579C32.142 5.98503 39.5708 4.00112 47.1318 4.00572C54.6927 4.01032 62.1191 6.00327 68.664 9.7841C69.7435 8.92568 70.8729 8.05726 72.0223 7.16889C66.4815 3.70198 60.2779 1.42661 53.8074 0.487952C47.337 -0.450703 40.7416 -0.0320282 34.4422 1.71726C28.1427 3.46655 22.2776 6.50805 17.2209 10.6477C12.1643 14.7873 8.02718 19.9342 5.07359 25.7599C2.11999 31.5856 0.414765 37.9623 0.0667069 44.4829C-0.281351 51.0036 0.735405 57.5252 3.0521 63.6315C5.36879 69.7378 8.93456 75.2947 13.5219 79.9478C18.1092 84.6009 23.6173 88.2479 29.6948 90.6561C29.3125 89.159 29.1211 87.6196 29.1251 86.0745C21.6401 82.6416 15.2987 77.1358 10.8537 70.2106C6.40865 63.2855 4.0468 55.2319 4.0485 47.006Z" fill="#826550" />
	<path d="M38.8 84.7669C46.5358 82.0519 55.1013 75.1146 53.3322 64.9731C52.4327 59.8425 48.8546 59.9822 46.0661 55.74C60.4984 43.7619 70.2632 27.1324 79.0485 9.56451H77.0496C69.6035 15.2142 55.1512 26.5335 48.6447 35.9462C46.0461 39.7193 44.0572 45.2392 41.3786 49.8009C36.841 57.5267 26.2667 70.9921 34.7721 80.8041C33.3929 85.4157 33.5728 93.1715 38.77 93.3412C42.0282 91.6144 37.4107 88.7396 38.8 84.7669ZM47.1055 46.0078C47.6184 46.0058 48.1202 46.156 48.5474 46.4394C48.9747 46.7227 49.308 47.1263 49.5052 47.5991C49.7023 48.0719 49.7544 48.5926 49.6549 49.095C49.5553 49.5974 49.3086 50.059 48.9459 50.4211C48.5833 50.7833 48.1212 51.0297 47.6181 51.1291C47.115 51.2286 46.5937 51.1765 46.1203 50.9796C45.6469 50.7827 45.2427 50.4498 44.959 50.0231C44.6753 49.5965 44.5249 49.0953 44.5269 48.5831C44.5295 47.9009 44.8021 47.2474 45.2851 46.765C45.7681 46.2826 46.4225 46.0104 47.1055 46.0078ZM36.821 74.875C34.962 65.8914 43.8173 57.956 48.7047 65.6419C48.9646 73.0384 42.528 81.3731 36.821 74.875Z" fill="#826550" />
	<path d="M56.0208 51.1185C70.0133 45.928 86.5845 43.3826 95 32.6523C85.595 34.0297 76.8897 36.1159 67.2648 37.2638C65.066 43.4924 60.1786 46.9261 56.0208 51.1185Z" fill="#826550" />
	<path d="M12.3841 39.9389C8.15631 52.1665 20.7996 55.9097 34.1724 53.7936C37.9604 48.9824 40.0193 43.8118 36.1714 37.9526C31.264 30.4762 15.2625 31.5642 12.3841 39.9389ZM17.6612 47.1956C12.544 36.3455 30.5444 36.1159 32.1935 41.9353C34.3723 49.5014 23.0983 49.9207 17.6612 47.1657V47.1956Z" fill="#826550" />
</svg>

<svg width="95" height="94" fill="#826550" xmlns="http://www.w3.org/2000/svg"><path d="M90.282 28.35a47.296 47.296 0 00-8.495-13.076l-1.999 3.773a43.062 43.062 0 016.417 9.982c1.359-.23 2.718-.45 4.078-.679zm-.279 15.142a45.7 45.7 0 01.15 3.514 42.973 42.973 0 01-12.608 30.403 43.085 43.085 0 01-30.44 12.598c-.779 0-1.559-.02-2.338-.06.16.6.248 1.217.26 1.837a6.602 6.602 0 01-.4 2.146c.83 0 1.669.07 2.518.07a47.136 47.136 0 0033.233-13.793A47.014 47.014 0 0094.16 47.006a48.021 48.021 0 00-.41-6.149 37.577 37.577 0 01-3.747 2.635zM4.048 47.006c0-7.551 1.992-14.97 5.774-21.508a43.029 43.029 0 0115.77-15.74 43.1 43.1 0 0143.072.026c1.08-.858 2.209-1.727 3.358-2.615a47.084 47.084 0 00-37.58-5.452 47.066 47.066 0 00-17.221 8.93A46.995 46.995 0 005.074 25.76a46.937 46.937 0 008.448 54.188 47.048 47.048 0 0016.173 10.708 18.326 18.326 0 01-.57-4.582 43.02 43.02 0 01-18.271-15.863 42.94 42.94 0 01-6.805-23.205z"/><path d="M38.8 84.767c7.736-2.715 16.301-9.652 14.532-19.794-.9-5.13-4.477-4.99-7.266-9.233C60.498 43.762 70.263 27.132 79.05 9.565h-2c-7.446 5.65-21.898 16.968-28.404 26.381-2.599 3.773-4.588 9.293-7.266 13.855-4.538 7.726-15.112 21.191-6.607 31.003-1.38 4.612-1.2 12.367 3.998 12.537 3.258-1.727-1.36-4.601.03-8.574zm8.306-38.76a2.59 2.59 0 012.4 1.592 2.583 2.583 0 01-1.888 3.53 2.591 2.591 0 01-2.659-1.106 2.582 2.582 0 01.326-3.258 2.59 2.59 0 011.82-.757zM36.82 74.876c-1.859-8.984 6.996-16.919 11.884-9.233.26 7.396-6.177 15.731-11.884 9.233z"/><path d="M56.02 51.118c13.993-5.19 30.565-7.735 38.98-18.466-9.405 1.378-18.11 3.464-27.735 4.612-2.199 6.228-7.086 9.662-11.244 13.854zM12.384 39.939C8.156 52.166 20.8 55.909 34.172 53.794c3.788-4.812 5.847-9.982 2-15.841-4.908-7.477-20.91-6.389-23.788 1.986zm5.277 7.257c-5.117-10.85 12.883-11.08 14.532-5.26 2.18 7.565-9.095 7.985-14.532 5.23v.03z"/></svg>
